X: 33698
T: Randy Wives Of Fochabers, The
R: reel
M: 4/4
K: Cmajor
C3 D EGGB|cded cGGc|BAAG A3 g|egdg BGGE|
C2 CD EGGB|cded cBAG|AccG AGEc|dBcE D2 C2:|
egga gece|ag g2 edBG|faag a2 ag|ecgc ecgc|
egga gece|aggg edBG|AccG AGEc|dBcE D2 C2:|

